X: 14570
T: Gan Ainm
R: jig
M: 6/8
K: Cmajor
ede cBA|eGG eGG|ede cde|fBB fBB|
fef def|ede cde|ded Bcd|c6:|
g2 e g2 e|a2 f a2 f|g2 e g2 e|dGB dBd|
gee gee|aff aff|gfe fed|ceg c'ge|
gee gee|aff aff|gfe gfe|dGB dBd|
gee gee|aff aff|gfe fed|c6||

